X:345
T: Fitzgerald's
S: "First Collection of Traditional Irish Music" (M.Mulvihill)
Z: B.Black
L: 1/8
M: 4/4
R: reel
K: D
D3 B ADFA|dcde fdAF|GFED CDEF|GBAF EA, (3A,G,A,|
FDA,D FGAc|BGBd cdef|fgaf gecd|eddc d3||
g|f2 dc dfaf|gbed cdeg|fgaf gfed|edcB AGAG|
FDFA dAFA|GFGB edcB|Adfa gecd|eddc d4 ||
